app/images/icons/play.svg

<svg width="12" height="14" viewBox="0 0 12 14" fill="none" xmlns="http://www.w3.org/2000/svg">
<path d="M2.28125 0.218795L11.2812 5.7188C11.7396 6.0313 11.9792 6.45838 12 7.00005C11.9792 7.56255 11.7396 7.98963 11.2812 8.28129L2.28125 13.7813C1.78125 14.073 1.28125 14.0834 0.78125 13.8125C0.28125 13.5209 0.0208333 13.0834 0 12.5V1.50005C0.0208333 0.916712 0.28125 0.479212 0.78125 0.187545C1.28125 -0.0832881 1.78125 -0.0728714 2.28125 0.218795Z" fill="white"/>
</svg>

<svg width="12" height="14" fill="none" xmlns="http://www.w3.org/2000/svg"><path d="M2.281.219l9 5.5c.459.312.698.74.719 1.281-.02.563-.26.99-.719 1.281l-9 5.5c-.5.292-1 .302-1.5.031-.5-.291-.76-.729-.781-1.312v-11C.02.917.281.48.781.188c.5-.271 1-.26 1.5.03z" fill="#fff"/></svg>
